Yaru++/mimetypes/48/unknown.svg

<svg height="48" viewBox="0 0 12.699375 12.699375" width="48" xmlns="http://www.w3.org/2000/svg" xmlns:xlink="http://www.w3.org/1999/xlink"><linearGradient id="a" gradientUnits="userSpaceOnUse" x1="6.350072" x2="6.350072" y1=".396856" y2="12.03795"><stop offset="0" stop-color="#fff"/><stop offset=".125" stop-color="#fff" stop-opacity=".098039"/><stop offset=".92500001" stop-color="#fff" stop-opacity=".098039"/><stop offset="1" stop-color="#fff" stop-opacity=".498039"/></linearGradient><linearGradient id="b" gradientTransform="matrix(0 -.02997086 .02997 0 -3.039509 13.625372)" gradientUnits="userSpaceOnUse" x1="459.03448" x2="35.310345" y1="419.23337" y2="207.36522"><stop offset="0" stop-color="#f2f2f2"/><stop offset="1" stop-color="#f9f9f9"/></linearGradient><path d="m4.1621981.39685594c-.5881133-.0089584-1.0513178.0135407-1.4323995.0775109-.3810845.0639689-.6929229.1839555-.9213476.4118407-.228422.22788546-.3489841.53958346-.4123566.92082876-.0633725.3812456-.0757438.8453924-.07286 1.4349839v3.2399529 3.2415027c-.00286.5886862.00955 1.0525982.07286 1.4334342.063373.381246.1839346.692944.4123566.920829.2284247.227885.5402631.347873.9213476.411841.3810844.06397.8442174.07751 1.4323995.07751h4.3757443c.5881821 0 1.0510744-.01352 1.4313677-.07751.3802939-.064.6911799-.18439.9187599-.412357.227584-.227967.347434-.539443.411325-.920313.06389-.380868.07751-.844073.07751-1.4334342v-3.2415027-3.1748437l-2.8389626-2.84361416z" opacity=".1"/><path d="m4.1623595.39685594c-2.334616 0-2.5858176.2397933-2.5743749 2.57913196v3.2414149 3.241415c-.011456 2.3393392.2397589 2.5791322 2.5743749 2.5791322h4.3757787c2.3346158 0 2.5743748-.239767 2.5743748-2.5791322v-3.241415l-.000177-3.1748438-2.6457032-2.64570306z" fill="none" opacity=".2" stroke="#000" stroke-width=".529141"/><path d="m4.1623595.39685594c-2.334616 0-2.5858176.2397933-2.5743749 2.57913196v3.2414149 3.241415c-.011456 2.3393392.2397589 2.5791322 2.5743749 2.5791322h4.3757787c2.3346158 0 2.5743748-.239767 2.5743748-2.5791322v-3.241415l-.000177-3.1748438-2.6457032-2.64570306z" fill="url(#b)"/><path d="m6.4995578 3.9693303c-.2938239.0000265-.5717365.0337327-.8337828.1008066-.2378989.0623063-.4486239.1473339-.6433133.2456747l.1988193.5501078c.3791928-.1924802.7681694-.2978479 1.1663239-.2978479.3347475 0 .6003047.08844.7831228.2709993.1803973.1739418.2717587.4061155.2717587.6813109 0 .1715792-.040149.332213-.1197975.4784278-.0712223.1421325-.1646288.2774417-.2798677.4054937-.1128737.1254143-.2318245.2508179-.3571117.3761131l-.0005292.0005292-.00132.0005291c-.122102.1159929-.2380156.2443757-.3482567.3852329l-.0005292.0005292-.0002434.0005291c-.1084262.132518-.1986023.2769205-.271002.4336043-.064449.1528107-.09751.3238157-.09751.5151577 0 .114766.013281.222411.03114.32748h.5992438c-.0005291-.01283-.00331-.02434-.00331-.0377v-.102833c0-.213601.042397-.407769.1279065-.5792373.083078-.1725395.1855857-.3295223.3072219-.4705779l.0005291-.0005292c.0002513-.0002434.0002513-.0005291.0005291-.00132.1200409-.1452.2526964-.2838005.397636-.4161306.1410689-.1288008.269695-.2637052.3859948-.404483.1150405-.1392566.2116219-.2874372.2902469-.4444914v-.0002434c.076262-.1584723.1149876-.3379039.1149876-.5412394 0-.1609117-.026656-.3288874-.081051-.5040197l-.0005291-.00132-.0002434-.00132c-.0470937-.1766593-.134648-.3350311-.2651737-.4774281-.1292956-.1410504-.3042083-.2571915-.5275718-.3477459l-.00132-.0005292-.00132-.0005291c-.2125033-.0944437-.4934372-.143839-.8421462-.1438601h-.0002381z" fill="#999"/><path d="m6.3501152 9.4608048c-.1790638 0-.3095895.05463-.4092823.165383-.1023702.113752-.1514559.24191-.1514559.3956172 0 .153702.049109.282119.1514559.395864.099693.11077.2302185.165131.4092823.165131.1790824 0 .3098516-.05437.4095496-.165131.1023623-.113745.1514586-.242162.1514586-.395864 0-.1537072-.049078-.2818652-.1514586-.3956172-.099698-.110768-.2304672-.165383-.4095496-.165383z" fill="#999"/><path d="m1.5878047 6.2174028v3.241503c-.011456 2.3393382.2397774 2.5790442 2.5743934 2.5790442h4.3757443c2.3346166 0 2.5743936-.239679 2.5743936-2.5790442v-3.241503z" fill="#fff" opacity=".2"/><path d="m6.3500703.39685594v11.64109406h2.1878721c2.3346166 0 2.5743936-.239679 2.5743936-2.5790442v-3.241503-3.1748438l-2.6457032-2.64570306z" fill="#fff" opacity=".1"/><path d="m4.1621981.39685594c-2.334616 0-2.5858361.2397052-2.5743934 2.57904386v3.241503 3.241503c-.011456 2.3393382.2397774 2.5790442 2.5743934 2.5790442h4.3757443c2.3346166 0 2.5743936-.239679 2.5743936-2.5790442v-3.241503-3.1748438h-.26457v3.1748438 3.241503c0 .5803222-.01624 1.0240722-.07028 1.3461042-.05402.322035-.139871.509123-.264055.633524-.124184.124388-.310701.2105-.631971.264571-.321273.05406-.7643965.07028-1.3435224.07028h-4.3757395c-.5791259 0-1.0227997-.01619-1.3450728-.07028-.3222705-.0541-.5102953-.14009-.6350719-.264571-.124774-.124488-.2105874-.311351-.2640517-.633005-.053467-.321654-.0684681-.765512-.0656267-1.3455902v-.000529-3.242007-3.2420198-.0005291c-.00283-.5800778.01217-1.0239334.065627-1.3455882.053467-.3216548.1392777-.5085248.2640517-.63300506.124774-.1244804.31332-.2104737.6355904-.2645703.3222705-.0540719.7654284-.0702641 1.3445543-.0702641h4.3044347v-.2645703z" fill="url(#a)" opacity=".4"/><path d="m11.112336 3.3071294v-.2645704l-2.6457032-2.64570306h-.2645703v1.11359066.042668.022917c0 1.5059289.201592 1.7381397 1.7109762 1.7307589z" opacity=".2"/><path d="m11.112336 3.0422204-2.6457032-2.64536496v.98127586.042668.022917c0 1.5059289.069402 1.6058846 1.5787862 1.5985039z" fill="#faf8f6"/></svg>

<?xml version="1.0" encoding="UTF-8" standalone="no"?>
<svg
   xmlns:dc="http://purl.org/dc/elements/1.1/"
   xmlns:cc="http://creativecommons.org/ns#"
   xmlns:rdf="http://www.w3.org/1999/02/22-rdf-syntax-ns#"
   xmlns:svg="http://www.w3.org/2000/svg"
   xmlns="http://www.w3.org/2000/svg"
   xmlns:xlink="http://www.w3.org/1999/xlink"
   xmlns:sodipodi="http://sodipodi.sourceforge.net/DTD/sodipodi-0.dtd"
   xmlns:inkscape="http://www.inkscape.org/namespaces/inkscape"
   height="48"
   viewBox="0 0 12.699375 12.699375"
   width="48"
   version="1.1"
   id="svg35"
   sodipodi:docname="unknown.svg"
   inkscape:version="0.92.5 (2060ec1f9f, 2020-04-08)">
  <metadata
     id="metadata41">
    <rdf:RDF>
      <cc:Work
         rdf:about="">
        <dc:format>image/svg+xml</dc:format>
        <dc:type
           rdf:resource="http://purl.org/dc/dcmitype/StillImage" />
      </cc:Work>
    </rdf:RDF>
  </metadata>
  <defs
     id="defs39">
    <linearGradient
       gradientTransform="matrix(0.26457031,0,0,0.26457031,-84.662115,-16.006503)"
       inkscape:collect="always"
       xlink:href="#linearGradient927"
       id="linearGradient1004"
       x1="344"
       y1="62"
       x2="344"
       y2="106"
       gradientUnits="userSpaceOnUse" />
    <linearGradient
       inkscape:collect="always"
       id="linearGradient927">
      <stop
         style="stop-color:#ffffff;stop-opacity:1;"
         offset="0"
         id="stop923" />
      <stop
         id="stop933"
         offset="0.125"
         style="stop-color:#ffffff;stop-opacity:0.09803922" />
      <stop
         id="stop931"
         offset="0.92500001"
         style="stop-color:#ffffff;stop-opacity:0.09803922" />
      <stop
         style="stop-color:#ffffff;stop-opacity:0.49803922"
         offset="1"
         id="stop925" />
    </linearGradient>
    <linearGradient
       inkscape:collect="always"
       xlink:href="#linearGradient4338"
       id="linearGradient1024"
       gradientUnits="userSpaceOnUse"
       gradientTransform="matrix(0,-0.02997086,0.02997,0,-3.0395089,13.625372)"
       x1="459.03448"
       y1="419.23337"
       x2="35.310345"
       y2="207.36522" />
    <linearGradient
       inkscape:collect="always"
       id="linearGradient4338">
      <stop
         style="stop-color:#f2f2f2;stop-opacity:1"
         offset="0"
         id="stop4340" />
      <stop
         style="stop-color:#f9f9f9;stop-opacity:1"
         offset="1"
         id="stop4342" />
    </linearGradient>
  </defs>
  <sodipodi:namedview
     pagecolor="#ffffff"
     bordercolor="#666666"
     borderopacity="1"
     objecttolerance="10"
     gridtolerance="10"
     guidetolerance="10"
     inkscape:pageopacity="0"
     inkscape:pageshadow="2"
     inkscape:window-width="834"
     inkscape:window-height="480"
     id="namedview37"
     showgrid="false"
     inkscape:zoom="4.9166667"
     inkscape:cx="24"
     inkscape:cy="24"
     inkscape:window-x="0"
     inkscape:window-y="28"
     inkscape:window-maximized="0"
     inkscape:current-layer="svg35" />
  <linearGradient
     id="a"
     gradientUnits="userSpaceOnUse"
     x1="344"
     x2="344"
     y1="62"
     y2="106">
    <stop
       offset="0"
       stop-color="#fff"
       id="stop2" />
    <stop
       offset=".125"
       stop-color="#fff"
       stop-opacity=".098039"
       id="stop4" />
    <stop
       offset=".92500001"
       stop-color="#fff"
       stop-opacity=".098039"
       id="stop6" />
    <stop
       offset="1"
       stop-color="#fff"
       stop-opacity=".498039"
       id="stop8" />
  </linearGradient>
  <clipPath
     id="b">
    <path
       d="m335.73108 62c-8.82418 0-9.77365.90635-9.7304 9.74838v12.25162 12.25162c-.0433 8.84203.90622 9.74838 9.7304 9.74838h16.53919c8.82418 0 9.7304-.90625 9.7304-9.74838v-12.25162-12.25162c0-8.84213-.90622-9.74838-9.7304-9.74838z"
       id="path11" />
  </clipPath>
  <linearGradient
     id="c"
     gradientTransform="matrix(0 -.02997086 .02997 0 -3.039509 13.625372)"
     gradientUnits="userSpaceOnUse"
     x1="459.03448"
     x2="35.310345"
     y1="419.23337"
     y2="207.36522">
    <stop
       offset="0"
       stop-color="#f2f2f2"
       id="stop14" />
    <stop
       offset="1"
       stop-color="#f9f9f9"
       id="stop16" />
  </linearGradient>
  <path
     style="color:#000000;font-style:normal;font-variant:normal;font-weight:normal;font-stretch:normal;font-size:medium;line-height:normal;font-family:sans-serif;font-variant-ligatures:normal;font-variant-position:normal;font-variant-caps:normal;font-variant-numeric:normal;font-variant-alternates:normal;font-feature-settings:normal;text-indent:0;text-align:start;text-decoration:none;text-decoration-line:none;text-decoration-style:solid;text-decoration-color:#000000;letter-spacing:normal;word-spacing:normal;text-transform:none;writing-mode:lr-tb;direction:ltr;text-orientation:mixed;dominant-baseline:auto;baseline-shift:baseline;text-anchor:start;white-space:normal;shape-padding:0;clip-rule:nonzero;display:inline;overflow:visible;visibility:visible;opacity:0.1;isolation:auto;mix-blend-mode:normal;color-interpolation:sRGB;color-interpolation-filters:linearRGB;solid-color:#000000;solid-opacity:1;vector-effect:none;fill:#000000;fill-opacity:1;fill-rule:nonzero;stroke:none;stroke-width:0.52914065;stroke-linecap:butt;stroke-linejoin:miter;stroke-miterlimit:4;stroke-dasharray:none;stroke-dashoffset:0;stroke-opacity:1;marker:none;color-rendering:auto;image-rendering:auto;shape-rendering:auto;text-rendering:auto;enable-background:accumulate"
     d="M 4.1621981,0.39685594 C 3.5740848,0.38789754 3.1108803,0.41039664 2.7297986,0.47436684 2.3487141,0.53833574 2.0368757,0.65832234 1.808451,0.88620754 1.580029,1.114093 1.4594669,1.425791 1.3960944,1.8070363 1.3327219,2.1882819 1.3203506,2.6524287 1.3232344,3.2420202 v 3.2399529 3.2415027 c -0.00286,0.5886862 0.00955,1.0525982 0.07286,1.4334342 0.063373,0.381246 0.1839346,0.692944 0.4123566,0.920829 0.2284247,0.227885 0.5402631,0.347873 0.9213476,0.411841 0.3810844,0.06397 0.8442174,0.07751 1.4323995,0.07751 h 4.3757443 c 0.5881821,0 1.0510744,-0.01352 1.4313677,-0.07751 0.3802939,-0.064 0.6911799,-0.18439 0.9187599,-0.412357 0.227584,-0.227967 0.347434,-0.539443 0.411325,-0.920313 0.06389,-0.380868 0.07751,-0.844073 0.07751,-1.4334342 V 6.4819731 3.3071294 L 8.5379424,0.46351524 Z"
     id="path1020"
     inkscape:connector-curvature="0"
     sodipodi:nodetypes="sccsccccccsscccscccs" />
  <path
     style="color:#000000;display:inline;overflow:visible;visibility:visible;opacity:0.2;fill:none;fill-opacity:1;fill-rule:nonzero;stroke:#000000;stroke-width:0.52914065;stroke-miterlimit:4;stroke-dasharray:none;stroke-opacity:1;marker:none;enable-background:accumulate"
     d="m 4.1623595,0.39685594 c -2.334616,0 -2.5858176,0.2397933 -2.5743749,2.57913196 v 3.2414149 3.241415 C 1.5765286,11.798157 1.8277435,12.03795 4.1623595,12.03795 h 4.3757787 c 2.3346158,0 2.5743748,-0.239767 2.5743748,-2.5791322 V 6.2174028 L 11.112336,3.042559 8.4666328,0.39685594 Z"
     id="path958"
     inkscape:connector-curvature="0"
     sodipodi:nodetypes="scccssscccs" />
  <path
     style="color:#000000;display:inline;overflow:visible;visibility:visible;fill:url(#linearGradient1024);fill-opacity:1;fill-rule:nonzero;stroke:none;stroke-width:0.26457033;marker:none;enable-background:accumulate"
     d="m 4.1623595,0.39685594 c -2.334616,0 -2.5858176,0.2397933 -2.5743749,2.57913196 v 3.2414149 3.241415 C 1.5765286,11.798157 1.8277435,12.03795 4.1623595,12.03795 h 4.3757787 c 2.3346158,0 2.5743748,-0.239767 2.5743748,-2.5791322 V 6.2174028 L 11.112336,3.042559 8.4666328,0.39685594 Z"
     id="path964"
     inkscape:connector-curvature="0"
     sodipodi:nodetypes="scccssscccs" />
  <path
     inkscape:connector-curvature="0"
     id="path993"
     d="M 6.4995578,3.9693303 C 6.2057339,3.9693568 5.9278213,4.003063 5.665775,4.0701369 5.4278761,4.1324432 5.2171511,4.2174708 5.0224617,4.3158116 L 5.221281,4.8659194 C 5.6004738,4.6734392 5.9894504,4.5680715 6.3876049,4.5680715 c 0.3347475,0 0.6003047,0.08844 0.7831228,0.2709993 0.1803973,0.1739418 0.2717587,0.4061155 0.2717587,0.6813109 0,0.1715792 -0.040149,0.332213 -0.1197975,0.4784278 C 7.2514666,6.140942 7.1580601,6.2762512 7.0428212,6.4043032 6.9299475,6.5297175 6.8109967,6.6551211 6.6857095,6.7804163 l -5.292e-4,5.292e-4 -0.00132,5.291e-4 C 6.5617583,6.8974675 6.4458447,7.0258503 6.3356036,7.1667075 l -5.292e-4,5.292e-4 -2.434e-4,5.291e-4 C 6.2264048,7.3002838 6.1362287,7.4446863 6.063829,7.6013701 5.99938,7.7541808 5.966319,7.9251858 5.966319,8.1165278 c 0,0.114766 0.013281,0.222411 0.03114,0.32748 h 0.5992438 c -5.291e-4,-0.01283 -0.00331,-0.02434 -0.00331,-0.0377 v -0.102833 c 0,-0.213601 0.042397,-0.407769 0.1279065,-0.5792373 C 6.8043773,7.551698 6.906885,7.3947152 7.0285212,7.2536596 l 5.291e-4,-5.292e-4 c 2.513e-4,-2.434e-4 2.513e-4,-5.291e-4 5.291e-4,-0.00132 0.1200409,-0.1452 0.2526964,-0.2838005 0.397636,-0.4161306 C 7.5682843,6.706879 7.6969104,6.5719746 7.8132102,6.4311968 7.9282507,6.2919402 8.0248321,6.1437596 8.1034571,5.9867054 V 5.986462 c 0.076262,-0.1584723 0.1149876,-0.3379039 0.1149876,-0.5412394 0,-0.1609117 -0.026656,-0.3288874 -0.081051,-0.5040197 l -5.291e-4,-0.00132 -2.434e-4,-0.00132 C 8.0895275,4.7619036 8.0019732,4.6035318 7.8714475,4.4611348 7.7421519,4.3200844 7.5672392,4.2039433 7.3438757,4.1133889 l -0.00132,-5.292e-4 -0.00132,-5.291e-4 C 7.1287324,4.0178869 6.8477985,3.9684916 6.4990895,3.9684705 h -2.381e-4 z"
     style="font-style:normal;font-variant:normal;font-weight:500;font-stretch:normal;font-size:72.03643799px;line-height:125%;font-family:Ubuntu;-inkscape-font-specification:'Ubuntu Medium';text-align:center;letter-spacing:0px;word-spacing:0px;writing-mode:lr-tb;text-anchor:middle;display:inline;fill:#999999;fill-opacity:1;stroke:none;stroke-width:0.66129494;enable-background:new"
     sodipodi:nodetypes="ccccscscccccccccsccsscccccsccscccccccccc" />
  <path
     style="font-style:normal;font-variant:normal;font-weight:500;font-stretch:normal;font-size:72.03643799px;line-height:125%;font-family:Ubuntu;-inkscape-font-specification:'Ubuntu Medium';text-align:center;letter-spacing:0px;word-spacing:0px;writing-mode:lr-tb;text-anchor:middle;display:inline;fill:#999999;fill-opacity:1;stroke:none;stroke-width:0.66129494;enable-background:new"
     d="m 6.3501152,9.4608048 c -0.1790638,0 -0.3095895,0.05463 -0.4092823,0.165383 -0.1023702,0.113752 -0.1514559,0.24191 -0.1514559,0.3956172 0,0.153702 0.049109,0.282119 0.1514559,0.395864 0.099693,0.11077 0.2302185,0.165131 0.4092823,0.165131 0.1790824,0 0.3098516,-0.05437 0.4095496,-0.165131 0.1023623,-0.113745 0.1514586,-0.242162 0.1514586,-0.395864 0,-0.1537072 -0.049078,-0.2818652 -0.1514586,-0.3956172 -0.099698,-0.110768 -0.2304672,-0.165383 -0.4095496,-0.165383 z"
     id="path995-3"
     inkscape:connector-curvature="0"
     sodipodi:nodetypes="scscscscs" />
  <path
     style="color:#000000;display:inline;overflow:visible;visibility:visible;opacity:0.2;fill:#ffffff;fill-opacity:1;fill-rule:nonzero;stroke:none;stroke-width:0.26457033;marker:none;enable-background:accumulate"
     d="m 1.5878047,6.2174028 v 3.241503 C 1.5763487,11.798244 1.8275821,12.03795 4.1621981,12.03795 h 4.3757443 c 2.3346166,0 2.5743936,-0.239679 2.5743936,-2.5790442 v -3.241503 z"
     id="path1006"
     inkscape:connector-curvature="0" />
  <path
     style="color:#000000;display:inline;overflow:visible;visibility:visible;opacity:0.1;fill:#ffffff;fill-opacity:1;fill-rule:nonzero;stroke:none;stroke-width:0.26457033;marker:none;enable-background:accumulate"
     d="M 6.3500703,0.39685594 V 12.03795 h 2.1878721 c 2.3346166,0 2.5743936,-0.239679 2.5743936,-2.5790442 V 6.2174028 3.042559 L 8.4666328,0.39685594 Z"
     id="path1013"
     inkscape:connector-curvature="0"
     sodipodi:nodetypes="ccsscccc" />
  <path
     style="color:#000000;font-style:normal;font-variant:normal;font-weight:normal;font-stretch:normal;font-size:medium;line-height:normal;font-family:sans-serif;font-variant-ligatures:normal;font-variant-position:normal;font-variant-caps:normal;font-variant-numeric:normal;font-variant-alternates:normal;font-feature-settings:normal;text-indent:0;text-align:start;text-decoration:none;text-decoration-line:none;text-decoration-style:solid;text-decoration-color:#000000;letter-spacing:normal;word-spacing:normal;text-transform:none;writing-mode:lr-tb;direction:ltr;text-orientation:mixed;dominant-baseline:auto;baseline-shift:baseline;text-anchor:start;white-space:normal;shape-padding:0;clip-rule:nonzero;display:inline;overflow:visible;visibility:visible;opacity:0.4;isolation:auto;mix-blend-mode:normal;color-interpolation:sRGB;color-interpolation-filters:linearRGB;solid-color:#000000;solid-opacity:1;vector-effect:none;fill:url(#linearGradient1004);fill-opacity:1;fill-rule:nonzero;stroke:none;stroke-width:0.52914065;stroke-linecap:butt;stroke-linejoin:miter;stroke-miterlimit:4;stroke-dasharray:none;stroke-dashoffset:0;stroke-opacity:1;marker:none;color-rendering:auto;image-rendering:auto;shape-rendering:auto;text-rendering:auto;enable-background:accumulate"
     clip-path="none"
     d="m 4.1621981,0.39685594 c -2.334616,0 -2.5858361,0.2397052 -2.5743934,2.57904386 v 3.241503 3.241503 C 1.5763487,11.798244 1.8275821,12.03795 4.1621981,12.03795 h 4.3757443 c 2.3346166,0 2.5743936,-0.239679 2.5743936,-2.5790442 V 6.2174028 3.042559 h -0.26457 v 3.1748438 3.241503 c 0,0.5803222 -0.01624,1.0240722 -0.07028,1.3461042 -0.05402,0.322035 -0.139871,0.509123 -0.264055,0.633524 -0.124184,0.124388 -0.310701,0.2105 -0.631971,0.264571 -0.321273,0.05406 -0.7643965,0.07028 -1.3435224,0.07028 H 4.1621981 c -0.5791259,0 -1.0227997,-0.01619 -1.3450728,-0.07028 C 2.4948548,11.649005 2.30683,11.563015 2.1820534,11.438534 2.0572794,11.314046 1.971466,11.127183 1.9180017,10.805529 1.8645347,10.483875 1.8495336,10.040017 1.852375,9.4599388 V 9.4594098 6.2174028 2.975383 2.9748539 c -0.00283,-0.5800778 0.01217,-1.0239334 0.065627,-1.3455882 0.053467,-0.3216548 0.1392777,-0.5085248 0.2640517,-0.63300506 0.124774,-0.1244804 0.31332,-0.2104737 0.6355904,-0.2645703 0.3222705,-0.0540719 0.7654284,-0.0702641 1.3445543,-0.0702641 h 4.3044347 v -0.2645703 z"
     id="path990"
     inkscape:connector-curvature="0" />
  <path
     inkscape:connector-curvature="0"
     style="color:#000000;display:inline;overflow:visible;visibility:visible;opacity:0.2;fill:#000000;fill-opacity:1;fill-rule:nonzero;stroke:none;stroke-width:0.06614863;marker:none;enable-background:accumulate"
     d="M 11.112336,3.3071294 V 3.042559 L 8.4666328,0.39685594 H 8.2020625 v 1.11359066 0.042668 0.022917 c 0,1.5059289 0.201592,1.7381397 1.7109762,1.7307589 z"
     id="rect4158-0-3-62-2"
     sodipodi:nodetypes="ccccccscc" />
  <path
     inkscape:connector-curvature="0"
     style="color:#000000;display:inline;overflow:visible;visibility:visible;fill:#faf8f6;fill-opacity:1;fill-rule:nonzero;stroke:none;stroke-width:0.06614863;marker:none;enable-background:accumulate"
     d="M 11.112336,3.0422204 8.4666328,0.39685544 v 0.98127586 0.042668 0.022917 c 0,1.5059289 0.069402,1.6058846 1.5787862,1.5985039 z"
     id="rect4158-0-3-62"
     sodipodi:nodetypes="ccccscc" />
</svg>
